public/ink.svg

<svg fill="none" height="48" viewBox="0 0 48 48" width="48" xmlns="http://www.w3.org/2000/svg" xmlns:xlink="http://www.w3.org/1999/xlink"><linearGradient id="a" gradientUnits="userSpaceOnUse" x1="-3.23316" x2="58.3738" y1="10.5205" y2="32.8007"><stop offset=".00800497" stop-color="#38dbff"/><stop offset="1" stop-color="#243aff"/></linearGradient><circle cx="24" cy="24" fill="url(#a)" r="24"/><path d="m16 20.6667h3.3333v11.3333h-3.3333zm1.6567-1.3334h-.0187c-.9947 0-1.638-.7413-1.638-1.6673 0-.946.6633-1.666 1.676-1.666 1.014 0 1.6387.72 1.6573 1.666 0 .9253-.6433 1.6673-1.6766 1.6673zm14.3433 12.6667h-3.3333v-6.066c0-1.4653-.8167-2.4653-2.128-2.4653-1.0007 0-1.542.6746-1.8047 1.3266-.096.2334-.0673.8787-.0673 1.2047v6h-3.3334v-11.3333h3.3334v1.744c.4806-.744 1.2333-1.744 3.1586-1.744 2.3854 0 4.174 1.5 4.174 4.8493z" fill="#fff"/></svg>

<svg width="48" height="48" viewBox="0 0 48 48" fill="none" xmlns="http://www.w3.org/2000/svg">
<circle cx="24" cy="24" r="24" fill="url(#paint0_linear_145_824)"/>
<path d="M16 20.6667H19.3333V32H16V20.6667ZM17.6567 19.3333H17.638C16.6433 19.3333 16 18.592 16 17.666C16 16.72 16.6633 16 17.676 16C18.69 16 19.3147 16.72 19.3333 17.666C19.3333 18.5913 18.69 19.3333 17.6567 19.3333ZM32 32H28.6667V25.934C28.6667 24.4687 27.85 23.4687 26.5387 23.4687C25.538 23.4687 24.9967 24.1433 24.734 24.7953C24.638 25.0287 24.6667 25.674 24.6667 26V32H21.3333V20.6667H24.6667V22.4107C25.1473 21.6667 25.9 20.6667 27.8253 20.6667C30.2107 20.6667 31.9993 22.1667 31.9993 25.516L32 32Z" fill="white"/>
<defs>
<linearGradient id="paint0_linear_145_824" x1="-3.23316" y1="10.5205" x2="58.3738" y2="32.8007" gradientUnits="userSpaceOnUse">
<stop offset="0.00800497" stop-color="#38DBFF"/>
<stop offset="1" stop-color="#243AFF"/>
</linearGradient>
</defs>
</svg>
